packages/ui-icons/svg/Solid/attach-media.svg

<svg viewBox="0 0 1920 1920" version="1.1" xmlns="http://www.w3.org/2000/svg">
    <path d="M1920,707.040389 L1920,1419.44309 C1919.89621,1525.20334 1835.41256,1611.24381 1731.62429,1611.24381 C1627.73223,1611.24381 1543.35236,1525.09955 1543.35236,1419.13172 C1543.35236,1313.1639 1627.73223,1226.91584 1731.62429,1226.91584 C1762.24183,1226.91584 1790.7836,1235.01133 1816.21173,1248.29623 L1816.21173,1248.29623 L1816.21173,846.012885 L1374.17748,976.786108 L1374.17748,1580.83385 L1373.34717,1580.83385 C1368.98806,1682.85772 1286.89154,1764.64288 1185.90555,1764.64288 C1082.01349,1764.64288 997.529839,1678.49861 997.529839,1572.427 C997.529839,1466.56296 1082.01349,1380.31491 1185.90555,1380.31491 C1216.4193,1380.31491 1244.85729,1388.41039 1270.38921,1401.69529 L1270.38921,1401.69529 L1270.38921,899.256269 L1920,707.040389 Z M0.207576544,244.954245 C704.51479,44.7466685 1351.01194,245.058033 1351.01194,245.058033 L1351.01194,245.058033 L1351.01194,725.597732 L1149.03996,786.313871 L1149.03996,1246.30349 C527.970939,1362.1312 0,1199.91014 0,1199.91014 L0,1199.91014 L0,245.058033 Z M541.774779,480.761199 L541.774779,976.76535 L752.56876,852.738365 L963.466528,728.815169 L752.56876,604.684396 L541.774779,480.761199 Z" stroke="none" stroke-width="1" fill-rule="evenodd"/>
</svg>

<svg viewBox="0 0 1920 1920" xmlns="http://www.w3.org/2000/svg">
    <path d="M1920 707.04v712.403c-.104 105.76-84.587 191.8-188.376 191.8-103.892 0-188.272-86.143-188.272-192.111 0-105.968 84.38-192.216 188.272-192.216 30.618 0 59.16 8.095 84.588 21.38V846.013l-442.035 130.773v604.048h-.83c-4.359 102.024-86.455 183.809-187.441 183.809-103.893 0-188.376-86.144-188.376-192.216 0-105.864 84.483-192.112 188.376-192.112 30.513 0 58.951 8.095 84.483 21.38V899.256L1920 707.04ZM.208 244.954c704.307-200.207 1350.804.104 1350.804.104v480.54l-201.972 60.716v459.99C527.97 1362.13 0 1199.91 0 1199.91V245.058Zm541.567 235.807v496.004l210.794-124.027 210.898-123.923-210.898-124.13L541.775 480.76Z" fill-rule="evenodd"/>
</svg>
